icon-themes/elementary_svg/cmd/sc_rejecttrackedchange.svg

<svg height="16" width="16" xmlns="http://www.w3.org/2000/svg" xmlns:xlink="http://www.w3.org/1999/xlink"><linearGradient id="a" gradientTransform="matrix(.25378586 0 0 .30501865 19.128979 -.685477)" gradientUnits="userSpaceOnUse" x1="-51.786404" x2="-51.786404" y1="50.786446" y2="2.906247"><stop offset="0" stop-opacity=".339506"/><stop offset="1" stop-opacity=".246914"/></linearGradient><linearGradient id="b" gradientTransform="matrix(.24324324 0 0 .35135133 2.162164 -.432428)" gradientUnits="userSpaceOnUse" x1="23.99999" x2="23.99999" y1="6.923065" y2="41.076912"><stop offset="0" stop-color="#fff"/><stop offset="0" stop-color="#fff" stop-opacity=".235294"/><stop offset="1" stop-color="#fff" stop-opacity=".156863"/><stop offset="1" stop-color="#fff" stop-opacity=".392157"/></linearGradient><linearGradient id="c" gradientTransform="matrix(.28571361 0 0 .30419701 1.142873 .232605)" gradientUnits="userSpaceOnUse" x1="25.132275" x2="25.132275" y1=".985206" y2="47.013336"><stop offset="0" stop-color="#f4f4f4"/><stop offset="1" stop-color="#dbdbdb"/></linearGradient><linearGradient id="d" gradientTransform="matrix(.36872249 0 0 .38856797 7.575734 7.143101)" gradientUnits="userSpaceOnUse" x1="11.192374" x2="11.192374" y1="4.064163" y2="30.298229"><stop offset="0" stop-color="#ed5353"/><stop offset="1" stop-color="#c6262e"/></linearGradient><path d="m3 1c2.2915074 0 9.999988.0008904 9.999988.0008904l.000012 13.9991096s-6.6666668 0-10 0c0-4.666666 0-9.3333336 0-14z" fill="url(#c)"/><path d="m12.5 14.5h-9.0000001v-13h9.0000001z" fill="none" stroke="url(#b)" stroke-linecap="round"/><path d="m2.4999621.49997396c2.5206756 0 11.0000629.000954 11.0000629.000954l.000013 14.99909804s-7.3333841 0-11.000076 0c0-5.000017 0-10.000035.0000001-15.00005204z" fill="none" stroke="url(#a)" stroke-linejoin="round" stroke-width=".999922"/><path d="m5 5h1v1h-1z" fill="#e20000"/><path d="m8 3h3.000001v1h-3.000001z" fill="#e20000"/><g fill="#aaa"><path d="m5 3h2v1h-2z"/><path d="m7 5h3v1h-3z"/><path d="m5 7h3v1h-3z"/></g><path d="m9 7h2v1h-2z" fill="#e20000"/><path d="m15.503272 14.059536-2.028476-2.060608 1.951871-2.1587096-1.407027-1.3371296-2.008743 2.0571232-2.0494537-2.0571232-1.4638986 1.3863117 2.0494543 2.1007345-2.0494543 2.067189 1.4638986 1.439987 2.0470757-2.159981 2.051842 2.159981z" fill="url(#d)" stroke="#b10000" stroke-linejoin="round" stroke-width="1.000262"/></svg>

<?xml version="1.0" encoding="UTF-8" standalone="no"?>
<svg
   xmlns:dc="http://purl.org/dc/elements/1.1/"
   xmlns:cc="http://creativecommons.org/ns#"
   xmlns:rdf="http://www.w3.org/1999/02/22-rdf-syntax-ns#"
   xmlns:svg="http://www.w3.org/2000/svg"
   xmlns="http://www.w3.org/2000/svg"
   xmlns:xlink="http://www.w3.org/1999/xlink"
   xmlns:sodipodi="http://sodipodi.sourceforge.net/DTD/sodipodi-0.dtd"
   xmlns:inkscape="http://www.inkscape.org/namespaces/inkscape"
   id="svg3942"
   height="16"
   width="16"
   version="1.1"
   sodipodi:docname="sc_rejecttrackedchange.svg"
   inkscape:export-filename="/home/rizmut/Dokumen/Rizmut/Github/libreoffice-style-elementary/images_elementary/cmd/sc_rejecttrackedchange.png"
   inkscape:export-xdpi="96"
   inkscape:export-ydpi="96"
   inkscape:version="0.92.3 (unknown)">
  <sodipodi:namedview
     pagecolor="#ffffff"
     bordercolor="#666666"
     borderopacity="1"
     objecttolerance="10"
     gridtolerance="10"
     guidetolerance="10"
     inkscape:pageopacity="0"
     inkscape:pageshadow="2"
     inkscape:window-width="1366"
     inkscape:window-height="706"
     id="namedview23"
     showgrid="false"
     inkscape:zoom="29.5"
     inkscape:cx="10.430872"
     inkscape:cy="5.9096692"
     inkscape:window-x="0"
     inkscape:window-y="0"
     inkscape:window-maximized="1"
     inkscape:current-layer="svg3942" />
  <defs
     id="defs3944">
    <linearGradient
       gradientTransform="matrix(0.25378586,0,0,0.30501865,19.128979,-0.68547704)"
       gradientUnits="userSpaceOnUse"
       xlink:href="#linearGradient3104-9"
       id="linearGradient3092"
       y2="2.9062471"
       x2="-51.786404"
       y1="50.786446"
       x1="-51.786404" />
    <linearGradient
       id="linearGradient3104-9">
      <stop
         offset="0"
         style="stop-color:#000000;stop-opacity:0.33950618"
         id="stop3106-5" />
      <stop
         offset="1"
         style="stop-color:#000000;stop-opacity:0.24691358"
         id="stop3108-5" />
    </linearGradient>
    <linearGradient
       gradientTransform="matrix(0.24324324,0,0,0.35135133,2.1621636,-0.43242804)"
       gradientUnits="userSpaceOnUse"
       xlink:href="#linearGradient3977"
       id="linearGradient3095"
       y2="41.076912"
       x2="23.99999"
       y1="6.9230647"
       x1="23.99999" />
    <linearGradient
       id="linearGradient3977">
      <stop
         offset="0"
         style="stop-color:#ffffff;stop-opacity:1"
         id="stop3979" />
      <stop
         offset="0"
         style="stop-color:#ffffff;stop-opacity:0.23529412"
         id="stop3981" />
      <stop
         offset="1"
         style="stop-color:#ffffff;stop-opacity:0.15686275"
         id="stop3983" />
      <stop
         offset="1"
         style="stop-color:#ffffff;stop-opacity:0.39215687"
         id="stop3985" />
    </linearGradient>
    <linearGradient
       id="linearGradient3600">
      <stop
         offset="0"
         style="stop-color:#f4f4f4;stop-opacity:1"
         id="stop3602" />
      <stop
         offset="1"
         style="stop-color:#dbdbdb;stop-opacity:1"
         id="stop3604" />
    </linearGradient>
    <linearGradient
       gradientTransform="matrix(0.28571361,0,0,0.30419701,1.1428727,0.2326048)"
       gradientUnits="userSpaceOnUse"
       xlink:href="#linearGradient3600"
       id="linearGradient3940"
       y2="47.013336"
       x2="25.132275"
       y1="0.98520643"
       x1="25.132275" />
    <radialGradient
       id="a"
       cx="23.896"
       cy="3.99"
       gradientTransform="matrix(0,0.41038696,-0.54170353,0,10.161398,-5.568732)"
       gradientUnits="userSpaceOnUse"
       r="20.396999">
      <stop
         offset="0"
         stop-color="#ed5353"
         id="stop2" />
      <stop
         offset="1"
         stop-color="#c6262e"
         id="stop4" />
    </radialGradient>
    <linearGradient
       id="b"
       gradientUnits="userSpaceOnUse"
       x1="7.928443"
       x2="7.928443"
       y1="5.416265"
       y2="10.565373">
      <stop
         offset="0"
         stop-color="#fff"
         id="stop7" />
      <stop
         offset=".507761"
         stop-color="#fff"
         stop-opacity=".235294"
         id="stop9" />
      <stop
         offset=".83456558"
         stop-color="#fff"
         stop-opacity=".156863"
         id="stop11" />
      <stop
         offset="1"
         stop-color="#fff"
         stop-opacity=".392157"
         id="stop13" />
    </linearGradient>
    <linearGradient
       id="a-4"
       gradientTransform="matrix(0.36872249,0,0,0.38856797,7.575734,7.143101)"
       gradientUnits="userSpaceOnUse"
       x1="11.192374"
       x2="11.192374"
       y1="4.0641632"
       y2="30.298229">
      <stop
         offset="0"
         stop-color="#ed5353"
         id="stop2-8" />
      <stop
         offset="1"
         stop-color="#c6262e"
         id="stop4-0" />
    </linearGradient>
  </defs>
  <metadata
     id="metadata3947">
    <rdf:RDF>
      <cc:Work
         rdf:about="">
        <dc:format>image/svg+xml</dc:format>
        <dc:type
           rdf:resource="http://purl.org/dc/dcmitype/StillImage" />
        <dc:title></dc:title>
      </cc:Work>
    </rdf:RDF>
  </metadata>
  <g
     id="g1960">
    <path
       style="display:inline;fill:url(#linearGradient3940);fill-opacity:1;stroke:none"
       id="path4160"
       d="m 3,1 c 2.2915074,0 9.999988,8.904e-4 9.999988,8.904e-4 L 13,15 C 13,15 6.3333332,15 3,15 3,10.333334 3,5.6666664 3,1 Z" />
    <path
       style="fill:none;stroke:url(#linearGradient3095);stroke-width:1;stroke-linecap:round;stroke-linejoin:miter;stroke-miterlimit:4;stroke-dasharray:none;stroke-dashoffset:0;stroke-opacity:1"
       id="rect6741-1"
       d="M 12.5,14.5 H 3.4999999 V 1.5 H 12.5 Z" />
    <path
       style="display:inline;fill:none;stroke:url(#linearGradient3092);stroke-width:0.99992192;stroke-linecap:butt;stroke-linejoin:round;stroke-miterlimit:4;stroke-dasharray:none;stroke-dashoffset:0;stroke-opacity:1"
       id="path4160-8"
       d="m 2.4999621,0.49997396 c 2.5206756,0 11.0000629,9.54e-4 11.0000629,9.54e-4 l 1.3e-5,14.99909804 c 0,0 -7.3333841,0 -11.000076,0 0,-5.000017 0,-10.000035 10e-8,-15.00005204 z" />
  </g>
  <path
     inkscape:connector-curvature="0"
     style="fill:#e20000"
     d="M 5,5 H 6 V 6 H 5 Z"
     id="path24" />
  <path
     inkscape:connector-curvature="0"
     style="fill:#e20000"
     d="m 8,3 h 3.000001 V 4 H 8 Z"
     id="path26" />
  <g
     style="fill:#aaaaaa"
     id="g34">
    <path
       inkscape:connector-curvature="0"
       d="M 5,3 H 7 V 4 H 5 Z"
       id="path28" />
    <path
       inkscape:connector-curvature="0"
       d="m 7,5 h 3 V 6 H 7 Z"
       id="path30" />
    <path
       inkscape:connector-curvature="0"
       d="M 5,7 H 8 V 8 H 5 Z"
       id="path32" />
  </g>
  <path
     inkscape:connector-curvature="0"
     style="fill:#e20000"
     d="m 9,7 h 2 V 8 H 9 Z"
     id="path36" />
  <path
     inkscape:connector-curvature="0"
     style="fill:url(#a-4);stroke:#b10000;stroke-width:1.00026202;stroke-linejoin:round"
     d="M 15.503272,14.059536 13.474796,11.998928 15.426667,9.8402184 14.01964,8.5030888 12.010897,10.560212 9.9614433,8.5030888 8.4975447,9.8894005 l 2.0494543,2.1007345 -2.0494543,2.067189 1.4638986,1.439987 2.0470757,-2.159981 2.051842,2.159981 z"
     id="path29" />
</svg>
